public/Dialog.svg

<svg width="50" height="50" viewBox="0 0 50 50" fill="none" xmlns="http://www.w3.org/2000/svg">
<path d="M45 0H5C2.2425 0 0 2.26893 0 5.05894V35.4126C0 38.2026 2.2425 40.4715 5 40.4715H12.5V50L28.1925 40.4715H45C47.7575 40.4715 50 38.2026 50 35.4126V5.05894C50 2.26893 47.7575 0 45 0ZM45 35.4126H26.8075L17.5 41.0609V35.4126H5V5.05894H45V35.4126Z" fill="#1096E1"/>
<path d="M12.5 12.6465H37.5V17.7054H12.5V12.6465ZM12.5 22.7644H30V27.8233H12.5V22.7644Z" fill="#1096E1"/>
</svg>

<svg xmlns="http://www.w3.org/2000/svg" width="50" height="50" fill="#1096e1" xmlns:v="https://vecta.io/nano"><path d="M45 0H5C2.243 0 0 2.269 0 5.059v30.354c0 2.79 2.243 5.059 5 5.059h7.5V50l15.692-9.529H45c2.758 0 5-2.269 5-5.059V5.059C50 2.269 47.758 0 45 0zm0 35.413H26.808L17.5 41.061v-5.648H5V5.059h40v30.354zM12.5 12.647h25v5.059h-25v-5.059zm0 10.118H30v5.059H12.5v-5.059z"/></svg>
